app/dist/common/images/zhejiang-huatie-emergency-equipment-science-and-technology-coltd.svg

<svg height="18" viewBox="0 0 18 18" width="18" xmlns="http://www.w3.org/2000/svg"><path d="m0 0h18v18h-18z" fill="#f0f3fa"/><path d="m9 8v-4l-4 1.55v1.03l3-.58v2z" fill="#e30211"/><path d="m9 8v-4l4 1.55v1.03l-3-.58v2z" fill="#ae0107"/><path d="m6 7-1 .28v4.06l4 2.66v-5h-1v2.34l-2-1z" fill="#e30211"/><path d="m12 7 1 .28v4.06l-4 2.66v-5h1v2.34l2-1z" fill="#ae0107"/></svg>

<!-- by TradingView --><svg width="18" height="18" viewBox="0 0 18 18" xmlns="http://www.w3.org/2000/svg"><path fill="#F0F3FA" d="M0 0h18v18H0z"/><path d="M9 8V4L5 5.55v1.03L8 6v2h1Z" fill="#E30211"/><path d="M9 8V4l4 1.55v1.03L10 6v2H9Z" fill="#AE0107"/><path d="m6 7-1 .28v4.06L9 14V9H8v2.34l-2-1V7Z" fill="#E30211"/><path d="m12 7 1 .28v4.06L9 14V9h1v2.34l2-1V7Z" fill="#AE0107"/></svg>
